Resources/DefaultStyle.bundle/poi_worship.svg

<?xml version="1.0" encoding="UTF-8"?>
<svg width="18" height="18" version="1.1" viewBox="0 0 18 18" xmlns="http://www.w3.org/2000/svg">
 <circle cx="9" cy="9" r="8.5" fill="#808080" stroke="white"/>
 <path d="m9.0703 6.0508c-0.44096-0.0080635-0.80527 0.34227-0.81445 0.7832l-0.00977 4.4258-1.7892 1.6216s-0.58419 0.45563-0.58653 0.83356c-0.00223 0.31766 0.20125 0.76002 0.63725 0.76709l4.8151-0.0011c0.44172-0.0092 0.79236-0.37469 0.7832-0.81641-0.0092-0.44249-0.37589-0.79345-0.81836-0.7832l-2.5022 0.0025 1.0448-0.88187 0.025391-5.1348c0.0091545-0.44246-0.34267-0.80828-0.78515-0.8164z" color="#000000" fill="#ffffff" stroke-linecap="round" style="-inkscape-stroke:none;paint-order:markers stroke fill"/>
 <ellipse cx="6.6055" cy="5.5867" rx=".7955" ry=".70111" fill="#ffffff" stroke="#ffffff" stroke-linecap="round" stroke-width="1.6" style="paint-order:markers stroke fill"/>
</svg>

<svg width="18" height="18" viewBox="0 0 18 18" fill="none" xmlns="http://www.w3.org/2000/svg">
<g clip-path="url(#clip0_2002_2306)">
<path d="M9 17.5C13.6944 17.5 17.5 13.6944 17.5 9C17.5 4.30558 13.6944 0.5 9 0.5C4.30558 0.5 0.5 4.30558 0.5 9C0.5 13.6944 4.30558 17.5 9 17.5Z" fill="#808080" stroke="white"/>
<path d="M9.07033 6.0508C8.62937 6.04273 8.26506 6.39307 8.25588 6.834L8.24611 11.2598L6.45691 12.8814C6.45691 12.8814 5.87272 13.337 5.87038 13.715C5.86815 14.0326 6.07163 14.475 6.50763 14.482L11.3227 14.4809C11.7644 14.4717 12.1151 14.1063 12.1059 13.6645C12.0967 13.222 11.73 12.8711 11.2876 12.8813L8.78537 12.8838L9.83017 12.002L9.85556 6.86717C9.86471 6.42471 9.51281 6.05892 9.07033 6.0508Z" fill="white"/>
<path fill-rule="evenodd" clip-rule="evenodd" d="M5.01001 5.5867C5.01001 4.6657 5.82228 4.08559 6.60551 4.08559C7.38874 4.08559 8.20101 4.6657 8.20101 5.5867C8.20101 6.5077 7.38874 7.08781 6.60551 7.08781C5.82228 7.08781 5.01001 6.5077 5.01001 5.5867Z" fill="white"/>
</g>
<defs>
<clipPath id="clip0_2002_2306">
<rect width="18" height="18" fill="white"/>
</clipPath>
</defs>
</svg>
